X: 42649
T: Whiskey Makes You A Lunatic
R: strathspey
M: 4/4
K: Adorian
e<AA>G A>Bc<d|e<AA>c B2 A>G|e<AA>G A>Bc<d|e<dg>e d>GB<d:|
e2 e>g e<d d2|e<dg>e d>GB<d|e2 e>d e>fg<a|b<ag>e d>GB<d:|

